X:2173
T:GDNIGHT1-  Good night and God be with you
O:england
S:Skene MS, c 1635?. Graham's translation
Q:1/4=80
L:1/4
M:C
K:Bphrygian
dBAd|BBba|fab/a/b/a/|b/a/f/e/fd||\
dBAd|B/A/B/d/ba|f (3 a/b/a/ (3 f/e/f/ (3 a/b/a/|f2d2|\
e/d/e/f/gB|d/B/d/e/ fd|e/d/e/f/ g/f/g/a/|beef/g/|agfe|\
d3/2 e/fd|eBdA|G2B2|e/d/e/f/ gB|d/B/d/e/fd|\
e/d/e/f/ g/f/g/a/|beEf/g/|a/g/f/e/ d/e/f/d/|a/g/f/e/fd|\
efa/f/e/f/|d2B2|]


